X:7107
T:The Morris Call
O:england
M:6/8
C:
S:The Morris Book
N:
A:Clifford's Mesne
R:Jig
%:
%:
%P:(AB)$^{\infty}$
P:(AB)8
L:1/8
K:G
I:speed 300
P:A
B|c3   c3|c3   c3|c2 e eef|.g2 z z2  \
B|c3   c3|c3   c3|c2 e eef|.g2 z z2  \
z|g2 B BBc|.e2 z z2 z|g2 B BBc|.e2 z z2||\
I:speed 450
P:B
(B|c3   B2) (c|A2 F D3)|(G2 A B2) B|(G2 A B2) \
(B|dcB  c2   B|A3) (B2 c)|(d2 e d2  c|B3   G2) \
(B|c3   B2) (c|A2 F D3)|(G2 A B2) B|(G2 A B2) \
(B|dcB  c2   B|(A3) A2)||
